svgs/light/computer-mouse.svg

<svg xmlns="http://www.w3.org/2000/svg" viewBox="0 0 384 512"><!--! Font Awesome Pro 6.6.0 by @fontawesome - https://fontawesome.com License - https://fontawesome.com/license (Commercial License) Copyright 2024 Fonticons, Inc. --><path d="M192 224L32 224l0 128c0 70.7 57.3 128 128 128l64 0c70.7 0 128-57.3 128-128l0-128-160 0zm192-32l0 16 0 16 0 128c0 88.4-71.6 160-160 160l-64 0C71.6 512 0 440.4 0 352L0 224l0-16 0-16 0-32C0 71.6 71.6 0 160 0l16 0 16 0 16 0 16 0c88.4 0 160 71.6 160 160l0 32zM208 32l0 160 144 0 0-32c0-70.7-57.3-128-128-128l-16 0zm-32 0l-16 0C89.3 32 32 89.3 32 160l0 32 144 0 0-160z"/></svg>

<svg xmlns="http://www.w3.org/2000/svg" viewBox="0 0 384 512"><!--! Font Awesome Pro 6.5.2 by @fontawesome - https://fontawesome.com License - https://fontawesome.com/license (Commercial License) Copyright 2024 Fonticons, Inc. --><path d="M192 224H32V352c0 70.7 57.3 128 128 128h64c70.7 0 128-57.3 128-128V224H192zm192-32v16 16V352c0 88.4-71.6 160-160 160H160C71.6 512 0 440.4 0 352V224 208 192 160C0 71.6 71.6 0 160 0h16 16 16 16c88.4 0 160 71.6 160 160v32zM208 32V192H352V160c0-70.7-57.3-128-128-128H208zm-32 0H160C89.3 32 32 89.3 32 160v32H176V32z"/></svg>
